; generated by PrusaSlicer 2.3.0+linux-x64 on 2023-01-01 at 17:37:25 UTC

; 

; external perimeters extrusion width = 0.45mm
; perimeters extrusion width = 0.45mm
; infill extrusion width = 0.45mm
; solid infill extrusion width = 0.45mm
; top infill extrusion width = 0.40mm
; first layer extrusion width = 0.42mm

M73 P0 R139
M73 Q0 S140
M201 X1000 Y1000 Z200 E5000 ; sets maximum accelerations, mm/sec^2
M203 X200 Y200 Z12 E120 ; sets maximum feedrates, mm/sec
M204 P1250 R1250 T1250 ; sets acceleration (P, T) and retract acceleration (R), mm/sec^2
M205 X8.00 Y8.00 Z0.40 E4.50 ; sets the jerk limits, mm/sec
M205 S0 T0 ; sets the minimum extruding and travel feed rate, mm/sec
M107
;TYPE:Custom
M862.3 P "MK3S" ; printer model check
M862.1 P0.4 ; nozzle diameter check
M115 U3.9.2 ; tell printer latest fw version
G90 ; use absolute coordinates
M83 ; extruder relative mode
M104 S215 ; set extruder temp
M140 S60 ; set bed temp
M190 S60 ; wait for bed temp
M109 S215 ; wait for extruder temp
G28 W ; home all without mesh bed level
G80 ; mesh bed leveling
G1 Y-3.0 F1000.0 ; go outside print area
G92 E0.0
G1 X60.0 E9.0 F1000.0 ; intro line
G1 X100.0 E12.5 F1000.0 ; intro line
G92 E0.0
M221 S95

; Don't change E values below. Excessive value can damage the printer.
M907 E430 ; set extruder motor current
G21 ; set units to millimeters
G90 ; use absolute coordinates
M83 ; use relative distances for extrusion
M900 K0.05 ; Filament gcode LA 1.5
M900 K30 ; Filament gcode LA 1.0
;LAYER_CHANGE
;Z:0.2
;HEIGHT:0.2
;BEFORE_LAYER_CHANGE
G92 E0.0
;0.2


G1 E-0.80000 F2100.000
G1 Z0.400 F10800.000
;AFTER_LAYER_CHANGE
;0.2
G1 X74.217 Y3.940
G1 Z0.200
G1 E0.80000 F2100.000
M204 S1000
;TYPE:Skirt
;WIDTH:0.42
G1 F1200.000
G1 X75.048 Y2.934 E0.04090
G1 X76.170 Y2.059 E0.04464
G1 X77.087 Y1.582 E0.03240
G1 X78.080 Y1.270 E0.03264
G1 X79.463 Y1.099 E0.04369
G1 X179.529 Y1.098 E3.13749
G1 X180.734 Y1.214 E0.03798
G1 X181.753 Y1.507 E0.03323
G1 X183.105 Y2.198 E0.04760
G1 X184.020 Y2.952 E0.03718
G1 X184.722 Y3.786 E0.03419
G1 X185.494 Y5.249 E0.05185
G1 X210.275 Y101.402 E3.11334
G1 X210.377 Y102.525 E0.03536
G1 X210.377 Y202.548 E3.13615
G1 X210.260 Y203.738 E0.03750
G1 X209.969 Y204.749 E0.03300
G1 X209.307 Y206.061 E0.04606
G1 X208.477 Y207.066 E0.04086
G1 X207.348 Y207.945 E0.04487
G1 X206.438 Y208.418 E0.03216
G1 X205.438 Y208.733 E0.03288
G1 X204.024 Y208.902 E0.04464
G1 X45.985 Y208.902 E4.95520
G1 X44.787 Y208.785 E0.03774
G1 X43.779 Y208.495 E0.03288
G1 X42.464 Y207.832 E0.04618
G1 X41.459 Y207.002 E0.04086
G1 X40.584 Y205.880 E0.04464
G1 X40.107 Y204.963 E0.03240
G1 X39.795 Y203.970 E0.03264
G1 X39.624 Y202.587 E0.04369
G1 X39.623 Y102.521 E3.13749
G1 X39.728 Y101.379 E0.03595
G1 X40.055 Y100.226 E0.03759
G1 X68.911 Y15.730 E2.79953
G1 X70.368 Y11.952 E0.12698
G1 X71.989 Y8.293 E0.12546
G1 X74.190 Y3.994 E0.15145
; printing object frem1frame1_v1.0.stl id:0 copy 0
;WIPE_START
G1 F8640.000
G1 X75.048 Y2.934 E-0.31474
G1 X76.170 Y2.059 E-0.32871
G1 X76.618 Y1.826 E-0.11655
;WIPE_END
G1 E-0.04000 F2100.000
G1 Z0.600 F10800.000
G1 X79.965 Y77.226
G1 Z0.200
G1 E0.80000 F2100.000
;TYPE:Perimeter
G1 F1200.000
G1 X80.402 Y77.358 E0.01431
G1 X80.798 Y77.570 E0.01408
G1 X81.145 Y77.855 E0.01408
G1 X81.430 Y78.202 E0.01408
G1 X81.642 Y78.598 E0.01408
G1 X81.772 Y79.028 E0.01408
G1 X81.816 Y79.475 E0.01408
G1 X81.772 Y79.922 E0.01408
G1 X81.642 Y80.352 E0.01408
G1 X81.430 Y80.748 E0.01408
G1 X81.145 Y81.095 E0.01408
G1 X80.798 Y81.380 E0.01408
G1 X80.402 Y81.592 E0.01408
G1 X79.972 Y81.722 E0.01408
G1 X79.525 Y81.766 E0.01408
G1 X79.078 Y81.722 E0.01408
G1 X78.648 Y81.592 E0.01408
G1 X78.252 Y81.380 E0.01408
G1 X77.905 Y81.095 E0.01408
G1 X77.620 Y80.748 E0.01408
G1 X77.408 Y80.352 E0.01408
G1 X77.278 Y79.922 E0.01408
G1 X77.234 Y79.475 E0.01408
G1 X77.278 Y79.028 E0.01408
G1 X77.408 Y78.598 E0.01408
G1 X77.620 Y78.202 E0.01408
G1 X77.905 Y77.855 E0.01408
G1 X78.252 Y77.570 E0.01408
G1 X78.648 Y77.358 E0.01408
G1 X79.078 Y77.228 E0.01408
G1 X79.469 Y77.190 E0.01231
G1 X79.905 Y77.222 E0.01371
G1 X79.877 Y77.598 F10800.000
;TYPE:External perimeter
G1 F1200.000
G1 X80.257 Y77.709 E0.01239
G1 X80.587 Y77.885 E0.01175
G1 X80.877 Y78.123 E0.01175
G1 X81.115 Y78.413 E0.01175
G1 X81.291 Y78.743 E0.01175
G1 X81.400 Y79.102 E0.01175
G1 X81.437 Y79.475 E0.01175
G1 X81.400 Y79.848 E0.01175
G1 X81.291 Y80.207 E0.01175
G1 X81.115 Y80.537 E0.01175
G1 X80.877 Y80.827 E0.01175
G1 X80.587 Y81.065 E0.01175
G1 X80.257 Y81.241 E0.01175
G1 X79.898 Y81.350 E0.01175
G1 X79.525 Y81.387 E0.01175
G1 X79.152 Y81.350 E0.01175
G1 X78.793 Y81.241 E0.01175
G1 X78.463 Y81.065 E0.01175
G1 X78.173 Y80.827 E0.01175
G1 X77.935 Y80.537 E0.01175
G1 X77.759 Y80.207 E0.01175
G1 X77.650 Y79.848 E0.01175
G1 X77.613 Y79.475 E0.01175
G1 X77.650 Y79.102 E0.01175
G1 X77.759 Y78.743 E0.01175
G1 X77.935 Y78.413 E0.01175
G1 X78.173 Y78.123 E0.01175
G1 X78.463 Y77.885 E0.01175
G1 X78.793 Y77.709 E0.01175
G1 X79.152 Y77.600 E0.01175
G1 X79.473 Y77.568 E0.01013
G1 X79.818 Y77.593 E0.01082
G1 X80.136 Y77.299 F10800.000
;WIPE_START
G1 F8640.000
G1 X80.257 Y77.709 E-0.10482
G1 X80.587 Y77.885 E-0.08655
G1 X80.877 Y78.123 E-0.08655
G1 X81.115 Y78.413 E-0.08654
G1 X81.291 Y78.743 E-0.08655
G1 X81.400 Y79.102 E-0.08655
G1 X81.437 Y79.475 E-0.08654
G1 X81.400 Y79.848 E-0.08654
G1 X81.338 Y80.053 E-0.04936
;WIPE_END
G1 E-0.04000 F2100.000
G1 Z0.600 F10800.000
G1 X79.525 Y9.766
G1 Z0.200
G1 E0.80000 F2100.000
;TYPE:Perimeter
G1 F1200.000
G1 X79.078 Y9.722 E0.01408
G1 X78.648 Y9.592 E0.01408
G1 X78.252 Y9.380 E0.01408
G1 X77.905 Y9.095 E0.01408
G1 X77.620 Y8.748 E0.01408
G1 X77.408 Y8.352 E0.01408
G1 X77.278 Y7.922 E0.01408
G1 X77.234 Y7.475 E0.01408
G1 X77.278 Y7.028 E0.01408
G1 X77.408 Y6.598 E0.01408
G1 X77.620 Y6.202 E0.01408
G1 X77.905 Y5.855 E0.01408
G1 X78.252 Y5.570 E0.01408
G1 X78.648 Y5.358 E0.01408
G1 X79.078 Y5.228 E0.01408
G1 X79.469 Y5.190 E0.01231
G1 X79.965 Y5.226 E0.01560
G1 X80.402 Y5.358 E0.01431
G1 X80.798 Y5.570 E0.01408
G1 X81.145 Y5.855 E0.01408
G1 X81.430 Y6.202 E0.01408
G1 X81.642 Y6.598 E0.01408
G1 X81.772 Y7.028 E0.01408
G1 X81.816 Y7.475 E0.01408
G1 X81.772 Y7.922 E0.01408
G1 X81.642 Y8.352 E0.01408
G1 X81.430 Y8.748 E0.01408
G1 X81.145 Y9.095 E0.01408
G1 X80.798 Y9.380 E0.01408
G1 X80.402 Y9.592 E0.01408
G1 X79.972 Y9.722 E0.01408
G1 X79.585 Y9.760 E0.01220
G1 X79.548 Y9.385 F10800.000
;TYPE:External perimeter
G1 F1200.000
G1 X79.152 Y9.350 E0.01246
G1 X78.793 Y9.241 E0.01175
G1 X78.463 Y9.065 E0.01175
G1 X78.173 Y8.827 E0.01175
G1 X77.935 Y8.537 E0.01175
G1 X77.759 Y8.207 E0.01175
G1 X77.650 Y7.848 E0.01175
G1 X77.613 Y7.475 E0.01175
G1 X77.650 Y7.102 E0.01175
G1 X77.759 Y6.743 E0.01175
G1 X77.935 Y6.413 E0.01175
G1 X78.173 Y6.123 E0.01175
G1 X78.463 Y5.885 E0.01175
G1 X78.793 Y5.709 E0.01175
G1 X79.152 Y5.600 E0.01175
G1 X79.473 Y5.568 E0.01013
G1 X79.895 Y5.599 E0.01327
G1 X80.257 Y5.709 E0.01184
G1 X80.587 Y5.885 E0.01175
G1 X80.877 Y6.123 E0.01175
G1 X81.115 Y6.413 E0.01175
G1 X81.291 Y6.743 E0.01175
G1 X81.400 Y7.102 E0.01175
G1 X81.437 Y7.475 E0.01175
G1 X81.400 Y7.848 E0.01175
G1 X81.291 Y8.207 E0.01175
G1 X81.115 Y8.537 E0.01175
G1 X80.877 Y8.827 E0.01175
G1 X80.587 Y9.065 E0.01175
G1 X80.257 Y9.241 E0.01175
G1 X79.898 Y9.350 E0.01175
G1 X79.607 Y9.379 E0.00915
G1 X79.352 Y9.730 F10800.000
;WIPE_START
G1 F8640.000
G1 X79.152 Y9.350 E-0.10538
G1 X78.793 Y9.241 E-0.08655
G1 X78.463 Y9.065 E-0.08655
G1 X78.173 Y8.827 E-0.08654
G1 X77.935 Y8.537 E-0.08655
G1 X77.759 Y8.207 E-0.08655
G1 X77.650 Y7.848 E-0.08654
G1 X77.613 Y7.475 E-0.08655
G1 X77.634 Y7.265 E-0.04880
;WIPE_END
G1 E-0.04000 F2100.000
G1 Z0.600 F10800.000
G1 X177.234 Y7.475
G1 Z0.200
G1 E0.80000 F2100.000
;TYPE:Perimeter
G1 F1200.000
G1 X177.278 Y7.028 E0.01408
G1 X177.408 Y6.598 E0.01408
G1 X177.620 Y6.202 E0.01408
G1 X177.905 Y5.855 E0.01408
G1 X178.252 Y5.570 E0.01408
G1 X178.648 Y5.358 E0.01408
G1 X179.078 Y5.228 E0.01408
G1 X179.469 Y5.190 E0.01231
G1 X179.965 Y5.226 E0.01560
G1 X180.402 Y5.358 E0.01431
G1 X180.798 Y5.570 E0.01408
G1 X181.145 Y5.855 E0.01408
G1 X181.430 Y6.202 E0.01408
G1 X181.642 Y6.598 E0.01408
G1 X181.772 Y7.028 E0.01408
G1 X181.816 Y7.475 E0.01408
G1 X181.772 Y7.922 E0.01408
G1 X181.642 Y8.352 E0.01408
G1 X181.430 Y8.748 E0.01408
G1 X181.145 Y9.095 E0.01408
G1 X180.798 Y9.380 E0.01408
G1 X180.402 Y9.592 E0.01408
G1 X179.972 Y9.722 E0.01408
G1 X179.525 Y9.766 E0.01408
G1 X179.078 Y9.722 E0.01408
G1 X178.648 Y9.592 E0.01408
G1 X178.252 Y9.380 E0.01408
G1 X177.905 Y9.095 E0.01408
G1 X177.620 Y8.748 E0.01408
G1 X177.409 Y8.352 E0.01408
G1 X177.278 Y7.922 E0.01408
G1 X177.240 Y7.535 E0.01220
G1 X177.615 Y7.498 F10800.000
;TYPE:External perimeter
G1 F1200.000
G1 X177.650 Y7.102 E0.01246
G1 X177.759 Y6.743 E0.01175
G1 X177.935 Y6.413 E0.01175
G1 X178.173 Y6.123 E0.01175
G1 X178.463 Y5.885 E0.01175
G1 X178.793 Y5.709 E0.01175
G1 X179.152 Y5.600 E0.01175
G1 X179.473 Y5.568 E0.01013
G1 X179.895 Y5.599 E0.01327
G1 X180.257 Y5.709 E0.01184
G1 X180.587 Y5.885 E0.01175
G1 X180.877 Y6.123 E0.01175
G1 X181.115 Y6.413 E0.01175
G1 X181.291 Y6.743 E0.01175
G1 X181.400 Y7.102 E0.01175
G1 X181.437 Y7.475 E0.01175
G1 X181.400 Y7.848 E0.01175
G1 X181.291 Y8.207 E0.01175
G1 X181.115 Y8.537 E0.01175
G1 X180.877 Y8.827 E0.01175
G1 X180.587 Y9.065 E0.01175
G1 X180.257 Y9.241 E0.01175
G1 X179.898 Y9.350 E0.01175
G1 X179.525 Y9.387 E0.01175
G1 X179.152 Y9.350 E0.01175
G1 X178.793 Y9.241 E0.01175
G1 X178.463 Y9.065 E0.01175
G1 X178.173 Y8.827 E0.01175
G1 X177.935 Y8.537 E0.01175
G1 X177.759 Y8.207 E0.01175
G1 X177.650 Y7.848 E0.01175
G1 X177.621 Y7.557 E0.00915
G1 X177.270 Y7.302 F10800.000
;WIPE_START
G1 F8640.000
G1 X177.650 Y7.102 E-0.10538
G1 X177.759 Y6.743 E-0.08655
G1 X177.935 Y6.413 E-0.08655
G1 X178.173 Y6.123 E-0.08655
G1 X178.463 Y5.885 E-0.08655
G1 X178.793 Y5.709 E-0.08655
G1 X179.152 Y5.600 E-0.08655
G1 X179.473 Y5.568 E-0.07459
G1 X179.736 Y5.587 E-0.06076
;WIPE_END
G1 E-0.04000 F2100.000
G1 Z0.600 F10800.000
G1 X179.965 Y77.226
G1 Z0.200
G1 E0.80000 F2100.000
;TYPE:Perimeter
G1 F1200.000
G1 X180.402 Y77.358 E0.01431
G1 X180.798 Y77.570 E0.01408
G1 X181.145 Y77.855 E0.01408
G1 X181.430 Y78.202 E0.01408
G1 X181.642 Y78.598 E0.01408
G1 X181.772 Y79.028 E0.01408
G1 X181.816 Y79.475 E0.01408
G1 X181.772 Y79.922 E0.01408
G1 X181.642 Y80.352 E0.01408
G1 X181.430 Y80.748 E0.01408
G1 X181.145 Y81.095 E0.01408
G1 X180.798 Y81.380 E0.01408
G1 X180.402 Y81.592 E0.01408
G1 X179.972 Y81.722 E0.01408
G1 X179.525 Y81.766 E0.01408
G1 X179.078 Y81.722 E0.01408
G1 X178.648 Y81.592 E0.01408
G1 X178.252 Y81.380 E0.01408
G1 X177.905 Y81.095 E0.01408
G1 X177.620 Y80.748 E0.01408
G1 X177.408 Y80.352 E0.01408
G1 X177.278 Y79.922 E0.01408
G1 X177.234 Y79.475 E0.01408
G1 X177.278 Y79.028 E0.01408
G1 X177.408 Y78.598 E0.01408
G1 X177.620 Y78.202 E0.01408
G1 X177.905 Y77.855 E0.01408
G1 X178.252 Y77.570 E0.01408
G1 X178.648 Y77.358 E0.01408
G1 X179.078 Y77.228 E0.01408
G1 X179.469 Y77.190 E0.01231
G1 X179.905 Y77.222 E0.01371
G1 X179.877 Y77.598 F10800.000
;TYPE:External perimeter
G1 F1200.000
G1 X180.257 Y77.709 E0.01239
G1 X180.587 Y77.885 E0.01175
G1 X180.877 Y78.123 E0.01175
G1 X181.115 Y78.413 E0.01175
G1 X181.291 Y78.743 E0.01175
G1 X181.400 Y79.102 E0.01175
G1 X181.437 Y79.475 E0.01175
G1 X181.400 Y79.848 E0.01175
G1 X181.291 Y80.207 E0.01175
G1 X181.115 Y80.537 E0.01175
G1 X180.877 Y80.827 E0.01175
G1 X180.587 Y81.065 E0.01175
G1 X180.257 Y81.241 E0.01175
G1 X179.898 Y81.350 E0.01175
G1 X179.525 Y81.387 E0.01175
G1 X179.152 Y81.350 E0.01175
G1 X178.793 Y81.241 E0.01175
G1 X178.463 Y81.065 E0.01175
G1 X178.173 Y80.827 E0.01175
G1 X177.935 Y80.537 E0.01175
G1 X177.759 Y80.207 E0.01175
G1 X177.650 Y79.848 E0.01175
G1 X177.613 Y79.475 E0.01175
G1 X177.650 Y79.102 E0.01175
G1 X177.759 Y78.743 E0.01175
G1 X177.935 Y78.413 E0.01175
G1 X178.173 Y78.123 E0.01175
G1 X178.463 Y77.885 E0.01175
G1 X178.793 Y77.709 E0.01175
G1 X179.152 Y77.600 E0.01175
G1 X179.473 Y77.568 E0.01013
G1 X179.818 Y77.593 E0.01082
G1 X180.136 Y77.299 F10800.000
;WIPE_START
G1 F8640.000
G1 X180.257 Y77.709 E-0.10482
G1 X180.587 Y77.885 E-0.08655
G1 X180.877 Y78.123 E-0.08655
G1 X181.115 Y78.413 E-0.08654
G1 X181.291 Y78.743 E-0.08655
G1 X181.400 Y79.102 E-0.08655
G1 X181.437 Y79.475 E-0.08654
G1 X181.400 Y79.848 E-0.08654
G1 X181.338 Y80.053 E-0.04936
;WIPE_END
G1 E-0.04000 F2100.000
G1 Z0.600 F10800.000
G1 X82.738 Y10.688
G1 Z0.200
G1 E0.80000 F2100.000
;TYPE:Perimeter
G1 F1200.000
G1 X82.738 Y76.262 E2.05603
M73 P0 R138
G1 X179.486 Y76.262 E3.03348
M73 Q0 S139
G1 X180.151 Y76.328 E0.02094
G1 X180.753 Y76.510 E0.01972
G1 X181.308 Y76.807 E0.01973
G1 X181.794 Y77.206 E0.01972
G1 X182.193 Y77.692 E0.01972
G1 X182.490 Y78.247 E0.01972
G1 X182.672 Y78.849 E0.01972
G1 X182.734 Y79.475 E0.01972
G1 X182.672 Y80.101 E0.01972
G1 X182.490 Y80.703 E0.01972
G1 X182.193 Y81.258 E0.01973
G1 X181.794 Y81.744 E0.01972
G1 X181.308 Y82.143 E0.01972
G1 X180.753 Y82.440 E0.01972
G1 X180.151 Y82.622 E0.01972
G1 X179.486 Y82.688 E0.02094
G1 X79.564 Y82.688 E3.13301
G1 X78.899 Y82.622 E0.02094
G1 X78.297 Y82.440 E0.01972
G1 X77.742 Y82.143 E0.01972
G1 X77.256 Y81.744 E0.01972
G1 X76.855 Y81.256 E0.01982
G1 X76.619 Y80.821 E0.01550
G1 X74.868 Y77.343 E0.12210
G1 X73.292 Y73.788 E0.12190
G1 X71.893 Y70.161 E0.12190
G1 X70.673 Y66.469 E0.12190
G1 X69.636 Y62.722 E0.12190
G1 X68.784 Y58.929 E0.12190
G1 X68.120 Y55.098 E0.12190
G1 X67.644 Y51.239 E0.12190
G1 X67.358 Y47.362 E0.12190
G1 X67.262 Y43.475 E0.12190
G1 X67.358 Y39.588 E0.12190
G1 X67.644 Y35.711 E0.12190
G1 X68.120 Y31.852 E0.12190
G1 X68.784 Y28.021 E0.12190
G1 X69.636 Y24.228 E0.12190
G1 X70.673 Y20.481 E0.12190
G1 X71.893 Y16.789 E0.12190
G1 X73.292 Y13.162 E0.12190
G1 X74.868 Y9.607 E0.12190
G1 X76.619 Y6.129 E0.12210
G1 X76.855 Y5.694 E0.01550
G1 X77.256 Y5.206 E0.01982
G1 X77.742 Y4.807 E0.01972
G1 X78.297 Y4.510 E0.01973
G1 X78.899 Y4.328 E0.01972
G1 X79.564 Y4.262 E0.02094
G1 X179.555 Y4.269 E3.13515
G1 X180.151 Y4.328 E0.01879
G1 X180.753 Y4.510 E0.01972
G1 X181.308 Y4.807 E0.01973
G1 X181.794 Y5.206 E0.01972
G1 X182.193 Y5.692 E0.01972
G1 X182.490 Y6.247 E0.01972
G1 X182.672 Y6.849 E0.01972
G1 X182.734 Y7.475 E0.01972
G1 X182.672 Y8.101 E0.01972
G1 X182.490 Y8.703 E0.01973
G1 X182.193 Y9.258 E0.01972
G1 X181.794 Y9.744 E0.01972
G1 X181.308 Y10.143 E0.01972
G1 X180.753 Y10.440 E0.01973
G1 X180.151 Y10.622 E0.01972
G1 X179.486 Y10.688 E0.02094
G1 X82.798 Y10.688 E3.03160
G1 X83.115 Y11.065 F10800.000
;TYPE:External perimeter
G1 F1200.000
G1 X83.115 Y75.885 E2.03239
M73 Q1 S139
G1 X179.505 Y75.885 E3.02224
M73 P1 R138
G1 X180.225 Y75.956 E0.02269
G1 X180.898 Y76.160 E0.02205
G1 X181.518 Y76.492 E0.02205
G1 X182.062 Y76.938 E0.02205
G1 X182.508 Y77.482 E0.02205
G1 X182.840 Y78.102 E0.02205
G1 X183.044 Y78.775 E0.02205
G1 X183.113 Y79.475 E0.02205
G1 X183.044 Y80.175 E0.02205
G1 X182.840 Y80.848 E0.02205
G1 X182.508 Y81.468 E0.02205
G1 X182.062 Y82.012 E0.02205
G1 X181.518 Y82.458 E0.02205
G1 X180.898 Y82.790 E0.02205
G1 X180.225 Y82.994 E0.02205
G1 X179.505 Y83.065 E0.02269
G1 X79.545 Y83.065 E3.13417
G1 X78.825 Y82.994 E0.02269
G1 X78.152 Y82.790 E0.02205
G1 X77.532 Y82.458 E0.02205
G1 X76.988 Y82.012 E0.02205
G1 X76.541 Y81.467 E0.02210
G1 X76.284 Y80.996 E0.01681
G1 X74.527 Y77.504 E0.12258
G1 X72.944 Y73.933 E0.12249
G1 X71.538 Y70.288 E0.12248
G1 X70.312 Y66.579 E0.12248
G1 X69.270 Y62.814 E0.12248
G1 X68.414 Y59.002 E0.12248
G1 X67.747 Y55.153 E0.12248
G1 X67.268 Y51.276 E0.12248
G1 X66.981 Y47.380 E0.12248
G1 X66.885 Y43.475 E0.12248
G1 X66.981 Y39.570 E0.12248
G1 X67.268 Y35.674 E0.12248
G1 X67.747 Y31.797 E0.12248
G1 X68.414 Y27.948 E0.12248
G1 X69.270 Y24.136 E0.12248
G1 X70.312 Y20.371 E0.12248
G1 X71.538 Y16.662 E0.12248
G1 X72.944 Y13.017 E0.12248
G1 X74.527 Y9.446 E0.12249
G1 X76.284 Y5.954 E0.12258
G1 X76.541 Y5.483 E0.01681
G1 X76.988 Y4.938 E0.02210
G1 X77.532 Y4.492 E0.02205
G1 X78.152 Y4.160 E0.02205
G1 X78.825 Y3.956 E0.02205
G1 X79.545 Y3.885 E0.02269
G1 X179.573 Y3.892 E3.13631
G1 X180.225 Y3.956 E0.02054
G1 X180.898 Y4.160 E0.02205
G1 X181.518 Y4.492 E0.02205
